core/assets/icons/checkbox.filled.svg

<svg width="24" height="24" viewBox="0 0 24 24" xmlns="http://www.w3.org/2000/svg"><g id="checkbox=filled"><path id="Vector" d="M16.5 3H12H7.5C5.01375 3 3 5.01375 3 7.5V16.5C3 18.9862 5.01375 21 7.5 21H16.5C18.9862 21 21 18.9862 21 16.5V7.5C21 5.01375 18.9862 3 16.5 3ZM10.5037 16.77L5.7225 12L7.30875 10.4138L10.4925 13.5975L13.6762 10.4138L16.86 7.23L18.4462 8.81625L10.4925 16.77H10.5037Z"/></g></svg>

<svg xmlns="http://www.w3.org/2000/svg" width="24" height="24" fill="none"><path fill="#191C22" d="M16.5 3h-9A4.499 4.499 0 0 0 3 7.5v9C3 18.986 5.014 21 7.5 21h9c2.486 0 4.5-2.014 4.5-4.5v-9C21 5.014 18.986 3 16.5 3Zm-5.996 13.77L5.723 12l1.586-1.586 3.183 3.184 3.184-3.184L16.86 7.23l1.586 1.586-7.954 7.954h.012Z"/></svg>
